web/public/images/3p-logos/clerk.svg

<svg viewBox="0 0 50 48" fill="none" xmlns="http://www.w3.org/2000/svg">
<g clip-path="url(#clip0_110_2284)">
<path fill-rule="evenodd" clip-rule="evenodd" d="M2.04195 12.6845C1.35449 13.0905 0.931519 13.8374 0.931519 14.6453V32.5194C0.931519 33.3272 1.35449 34.0741 2.04195 34.4802L24.9315 48V47.9291L47.8211 34.4093C48.5086 34.0032 48.9315 33.2563 48.9315 32.4485V15.3115C48.9315 14.4369 47.9984 13.8915 47.2542 14.3311L26.0419 26.8602C25.3545 27.2662 24.9315 28.0131 24.9315 28.821V32.1232L2.79153 19.0461L24.9315 5.96898V1.13576C24.9315 0.261237 23.9984 -0.284195 23.2542 0.155359L2.04195 12.6845ZM32.0464 29.0532C31.8745 29.1547 31.7688 29.3414 31.7688 29.5434V30.9925C31.7688 31.2111 32.0021 31.3475 32.1881 31.2376L43.4912 24.5614C43.663 24.4599 43.7688 24.2732 43.7688 24.0712V22.6221C43.7688 22.4035 43.5355 22.2671 43.3494 22.377L32.0464 29.0532Z" fill="#335BF1"/>
<path d="M16.9315 24.0958C16.9315 23.2879 17.3545 22.541 18.0419 22.135L39.2542 9.60583C39.9984 9.16628 40.9315 9.71171 40.9315 10.5862V15.4195L16.9315 29.5952V24.0958Z" fill="#335BF1"/>
<path d="M8.93152 19.3705C8.93152 18.5627 9.35449 17.8158 10.0419 17.4097L31.2542 4.88061C31.9984 4.44105 32.9315 4.98649 32.9315 5.86101V10.6942L8.93152 24.87V19.3705Z" fill="#335BF1"/>
</g>
<defs>
<clipPath id="clip0_110_2284">
<rect width="49" height="48" fill="white" transform="translate(0.28479)"/>
</clipPath>
</defs>
</svg>

<svg fill="none" viewBox="0 0 50 48" xmlns="http://www.w3.org/2000/svg"><clipPath id="a"><path d="M.285 0h49v48h-49z"/></clipPath><g clip-path="url(#a)" fill="#335bf1"><path clip-rule="evenodd" d="M2.042 12.684a2.275 2.275 0 0 0-1.11 1.961V32.52c0 .808.422 1.555 1.11 1.961L24.932 48v-.07l22.89-13.52a2.275 2.275 0 0 0 1.11-1.961V15.312c0-.875-.934-1.42-1.678-.98L26.042 26.86a2.275 2.275 0 0 0-1.11 1.961v3.302L2.791 19.046 24.932 5.97V1.136c0-.875-.934-1.42-1.678-.98zm30.004 16.37a.569.569 0 0 0-.277.49v1.449a.28.28 0 0 0 .42.245L43.49 24.56a.569.569 0 0 0 .278-.49v-1.449a.28.28 0 0 0-.42-.245z" fill-rule="evenodd"/><path d="M16.931 24.096c0-.808.423-1.555 1.11-1.961l21.213-12.53c.744-.439 1.677.107 1.677.981v4.834l-24 14.175zM8.932 19.37c0-.807.422-1.554 1.11-1.96L31.254 4.88c.744-.439 1.677.106 1.677.981v4.833l-24 14.176z"/></g></svg>
